X: 3036
T: Bay Of Light, The
R: polka
M: 2/4
K: Amajor
c>B A(e|e)A/B/ c/B/A|c>B A(A|A)F EF|
c>B A(e|e)c e/f/a|b>a fa|fe ce:|
a>f e(f|f)e f/a/b|a>f e(c|c)B A/B/c|
a>f e(f|f)e fa|1 b>a fa|fe ce:|2 b>a f(c'|c')b a/f/e||

